svg/music_note_half_dotted.svg

<svg xmlns="http://www.w3.org/2000/svg" viewBox="0 0 24 24"><path d="M14 3h-2v10.56a3.96 3.96 0 0 0-2-.56 4 4 0 1 0 4 4zm-4 16a2 2 0 1 1 2-2 2 2 0 0 1-2 2m6.5 1a1.5 1.5 0 1 1 1.5-1.5 1.5 1.5 0 0 1-1.5 1.5"/></svg>

<?xml version="1.0" encoding="UTF-8"?><!DOCTYPE svg PUBLIC "-//W3C//DTD SVG 1.1//EN" "http://www.w3.org/Graphics/SVG/1.1/DTD/svg11.dtd"><svg xmlns="http://www.w3.org/2000/svg" xmlns:xlink="http://www.w3.org/1999/xlink" version="1.1" id="mdi-music-note-half-dotted" width="24" height="24" viewBox="0 0 24 24"><path d="M14 3H12V13.56A3.96 3.96 0 0 0 10 13A4 4 0 1 0 14 17V3M10 19A2 2 0 1 1 12 17A2 2 0 0 1 10 19M16.5 20A1.5 1.5 0 1 1 18 18.5A1.5 1.5 0 0 1 16.5 20Z" /></svg>
